;FLAVOR:RepRap
;TIME:578
;Generated with Cura_SteamEngine master
M190 S60
M104 S200
M109 S200
G21 ;metric values
G90 ;absolute positioning
M82 ;set extruder to absolute mode
M107 ;start with the fan off
G28 X0 Y0 ;move X/Y to min endstops
G28 Z0 ;move Z to min endstops
G1 Z15.0 F9000 ;move the platform down 15mm
G92 E0 ;zero the extruded length
G1 F200 E3 ;extrude 3mm of feed stock
G92 E0 ;zero the extruded length again
G1 F9000
;Put printing message on LCD screen
M117 Printing...
;LAYER_COUNT:28
;LAYER:0
M107
G1 F1500 E-6.5
G0 F3600 X82.622 Y16.189 Z.3
;TYPE:SKIRT
G1 F1500 E0
G1 F1800 X82.938 Y14.961 E0.06326
G1 X83.241 Y14.031 E0.11206
G1 X83.704 Y12.863 E0.17474
G1 X84.121 Y11.978 E0.22355
G1 X84.726 Y10.878 E0.28618
G1 X85.248 Y10.055 E0.33481
G1 X85.979 Y9.048 E0.39689
G1 X86.601 Y8.295 E0.44561
G1 X87.459 Y7.38 E0.50819
G1 X88.178 Y6.704 E0.55743
G1 X89.155 Y5.896 E0.62068
G1 X89.95 Y5.319 E0.66969
G1 X91.007 Y4.649 E0.73212
G1 X91.867 Y4.177 E0.78107
G1 X93.008 Y3.641 E0.84396
G1 X93.917 Y3.282 E0.89272
G1 X95.107 Y2.896 E0.95513
G1 X96.041 Y2.655 E1.00326
G1 X97.268 Y2.419 E1.06559
G1 X98.253 Y2.294 E1.11513
G1 X99.512 Y2.215 E1.17807
G1 X100.488 Y2.215 E1.22676
G1 X101.747 Y2.294 E1.28969
G1 X102.732 Y2.419 E1.33923
G1 X103.959 Y2.655 E1.40157
G1 X104.893 Y2.896 E1.44969
G1 X106.083 Y3.282 E1.51211
G1 X106.992 Y3.641 E1.56086
G1 X108.133 Y4.177 E1.62376
G1 X108.991 Y4.648 E1.67259
G1 X110.047 Y5.317 E1.73496
G1 X110.844 Y5.895 E1.78407
G1 X111.821 Y6.703 E1.84733
G1 X112.54 Y7.379 E1.89656
G1 X113.398 Y8.294 E1.95914
G1 X114.019 Y9.046 E2.0078
G1 X114.751 Y10.054 E2.06995
G1 X115.274 Y10.878 E2.11864
G1 X115.879 Y11.978 E2.18127
G1 X116.295 Y12.861 E2.22997
G1 X116.758 Y14.028 E2.29261
G1 X117.062 Y14.96 E2.34151
G1 X117.378 Y16.188 E2.40477
G1 X117.562 Y17.154 E2.45384
G1 X117.718 Y18.388 E2.51589
G1 X117.78 Y19.366 E2.56478
G1 X117.78 Y20.63 E2.62784
G1 X117.719 Y21.605 E2.67658
G1 X117.563 Y22.843 E2.73883
G1 X117.377 Y23.813 E2.78811
G1 X117.062 Y25.036 E2.85111
G1 X116.763 Y25.957 E2.89942
G1 X116.3 Y27.129 E2.96229
G1 X115.879 Y28.024 E3.01164
G1 X115.273 Y29.125 E3.07434
G1 X114.752 Y29.946 E3.12285
G1 X114.021 Y30.953 E3.18493
G1 X113.399 Y31.706 E3.23366
G1 X112.541 Y32.621 E3.29624
G1 X111.821 Y33.298 E3.34554
G1 X110.846 Y34.104 E3.40865
G1 X110.055 Y34.678 E3.45741
G1 X108.996 Y35.35 E3.51999
G1 X108.133 Y35.824 E3.56911
G1 X106.992 Y36.36 E3.632
G1 X106.083 Y36.719 E3.68076
G1 X104.893 Y37.105 E3.74317
G1 X103.959 Y37.346 E3.7913
G1 X102.732 Y37.582 E3.85364
G1 X101.741 Y37.707 E3.90347
G1 X100.482 Y37.785 E3.9664
G1 X99.518 Y37.785 E4.01449
G1 X98.259 Y37.707 E4.07743
G1 X97.268 Y37.582 E4.12726
G1 X96.041 Y37.346 E4.1896
G1 X95.107 Y37.105 E4.23772
G1 X93.917 Y36.719 E4.30014
G1 X93.008 Y36.36 E4.34889
G1 X91.867 Y35.824 E4.41179
G1 X91.004 Y35.35 E4.46091
G1 X89.945 Y34.678 E4.52348
G1 X89.154 Y34.104 E4.57224
G1 X88.179 Y33.298 E4.63535
G1 X87.459 Y32.621 E4.68466
G1 X86.601 Y31.706 E4.74724
G1 X85.979 Y30.953 E4.79597
G1 X85.248 Y29.946 E4.85805
G1 X84.727 Y29.125 E4.90656
G1 X84.121 Y28.024 E4.96926
G1 X83.7 Y27.129 E5.0186
G1 X83.237 Y25.957 E5.08147
G1 X82.938 Y25.036 E5.12978
G1 X82.623 Y23.813 E5.19279
G1 X82.437 Y22.843 E5.24206
G1 X82.281 Y21.605 E5.30432
G1 X82.22 Y20.63 E5.35305
G1 X82.22 Y19.367 E5.41606
G1 X82.282 Y18.389 E5.46496
G1 X82.438 Y17.155 E5.52701
G1 X82.622 Y16.189 E5.57607
G0 F3600 X83.009 Y16.289
G1 F1800 X83.325 Y15.061 E5.63933
G1 X83.613 Y14.178 E5.68567
G1 X84.076 Y13.01 E5.74835
G1 X84.471 Y12.171 E5.79462
G1 X85.076 Y11.071 E5.85725
G1 X85.571 Y10.29 E5.90338
G1 X86.302 Y9.283 E5.96546
G1 X86.893 Y8.568 E6.01174
G1 X87.751 Y7.653 E6.07432
G1 X88.433 Y7.013 E6.12098
G1 X89.41 Y6.205 E6.18423
G1 X90.164 Y5.657 E6.23074
G1 X91.221 Y4.987 E6.29317
G1 X92.037 Y4.539 E6.33961
G1 X93.178 Y4.003 E6.40251
G1 X94.041 Y3.662 E6.4488
G1 X95.231 Y3.276 E6.51122
G1 X96.116 Y3.048 E6.55681
G1 X97.343 Y2.812 E6.61915
G1 X98.278 Y2.694 E6.66616
G1 X99.537 Y2.615 E6.7291
G1 X100.463 Y2.615 E6.7753
G1 X101.722 Y2.694 E6.83823
G1 X102.657 Y2.812 E6.88525
G1 X103.884 Y3.048 E6.94759
G1 X104.769 Y3.276 E6.99318
G1 X105.959 Y3.662 E7.0556
G1 X106.822 Y4.003 E7.10189
G1 X107.963 Y4.539 E7.16478
G1 X108.777 Y4.986 E7.21112
G1 X109.833 Y5.655 E7.27348
G1 X110.589 Y6.204 E7.3201
G1 X111.566 Y7.012 E7.38335
G1 X112.248 Y7.652 E7.43001
G1 X113.106 Y8.567 E7.49259
G1 X113.696 Y9.281 E7.5388
G1 X114.428 Y10.289 E7.60095
G1 X114.924 Y11.071 E7.64715
G1 X115.529 Y12.171 E7.70978
G1 X115.923 Y13.008 E7.75593
G1 X116.386 Y14.175 E7.81857
G1 X116.675 Y15.06 E7.86502
G1 X116.991 Y16.288 E7.92828
G1 X117.166 Y17.204 E7.9748
G1 X117.322 Y18.438 E8.03686
G1 X117.38 Y19.366 E8.08325
G1 X117.38 Y20.63 E8.14631
G1 X117.322 Y21.555 E8.19255
G1 X117.166 Y22.793 E8.2548
G1 X116.99 Y23.714 E8.30158
G1 X116.675 Y24.937 E8.36459
G1 X116.391 Y25.81 E8.41039
G1 X115.928 Y26.982 E8.47326
G1 X115.529 Y27.831 E8.52006
G1 X114.923 Y28.932 E8.58276
G1 X114.429 Y29.711 E8.62878
G1 X113.698 Y30.718 E8.69086
G1 X113.107 Y31.433 E8.73714
G1 X112.249 Y32.348 E8.79972
G1 X111.566 Y32.989 E8.84645
G1 X110.591 Y33.795 E8.90956
G1 X109.841 Y34.34 E8.95582
G1 X108.782 Y35.012 E9.01839
G1 X107.963 Y35.462 E9.06501
G1 X106.822 Y35.998 E9.1279
G1 X105.959 Y36.339 E9.1742
G1 X104.769 Y36.725 E9.23661
G1 X103.884 Y36.953 E9.28221
G1 X102.657 Y37.189 E9.34454
G1 X101.717 Y37.308 E9.39182
G1 X100.458 Y37.386 E9.45475
G1 X99.542 Y37.386 E9.50045
G1 X98.283 Y37.308 E9.56338
G1 X97.343 Y37.189 E9.61065
G1 X96.116 Y36.953 E9.67299
G1 X95.231 Y36.725 E9.71858
G1 X94.041 Y36.339 E9.781
G1 X93.178 Y35.998 E9.82729
G1 X92.037 Y35.462 E9.89018
G1 X91.218 Y35.012 E9.93681
G1 X90.159 Y34.34 E9.99938
G1 X89.409 Y33.795 E10.04563
G1 X88.434 Y32.989 E10.10874
G1 X87.751 Y32.348 E10.15548
G1 X86.893 Y31.433 E10.21806
G1 X86.302 Y30.718 E10.26434
G1 X85.571 Y29.711 E10.32642
G1 X85.077 Y28.932 E10.37244
G1 X84.471 Y27.831 E10.43514
G1 X84.072 Y26.982 E10.48194
G1 X83.609 Y25.81 E10.54481
G1 X83.325 Y24.937 E10.59061
G1 X83.01 Y23.714 E10.65361
G1 X82.834 Y22.793 E10.70039
G1 X82.678 Y21.555 E10.76265
G1 X82.62 Y20.63 E10.80889
G1 X82.62 Y19.367 E10.8719
G1 X82.678 Y18.439 E10.91829
G1 X82.834 Y17.205 E10.98034
G1 X83.009 Y16.289 E11.02687
G0 F3600 X83.397 Y16.389
G1 F1800 X83.713 Y15.161 E11.09013
G1 X83.985 Y14.325 E11.13399
G1 X84.448 Y13.157 E11.19667
G1 X84.821 Y12.364 E11.24039
G1 X85.426 Y11.264 E11.30302
G1 X85.895 Y10.525 E11.34669
G1 X86.626 Y9.518 E11.40877
G1 X87.185 Y8.842 E11.45253
G1 X88.043 Y7.927 E11.51511
G1 X88.688 Y7.321 E11.55927
G1 X89.665 Y6.513 E11.62252
G1 X90.378 Y5.995 E11.66649
G1 X91.435 Y5.325 E11.72892
G1 X92.207 Y4.901 E11.77287
G1 X93.348 Y4.365 E11.83576
G1 X94.164 Y4.043 E11.87952
G1 X95.354 Y3.657 E11.94194
G1 X96.192 Y3.441 E11.98511
G1 X97.419 Y3.205 E12.04745
G1 X98.303 Y3.093 E12.09191
G1 X99.562 Y3.014 E12.15484
G1 X100.438 Y3.014 E12.19855
G1 X101.697 Y3.093 E12.26148
G1 X102.581 Y3.205 E12.30594
G1 X103.808 Y3.441 E12.36827
G1 X104.646 Y3.657 E12.41145
G1 X105.836 Y4.043 E12.47386
G1 X106.652 Y4.365 E12.51763
G1 X107.793 Y4.901 E12.58052
G1 X108.563 Y5.324 E12.62435
G1 X109.619 Y5.993 E12.68672
G1 X110.334 Y6.512 E12.7308
G1 X111.311 Y7.32 E12.79405
G1 X111.956 Y7.926 E12.8382
G1 X112.814 Y8.841 E12.90078
G1 X113.372 Y9.516 E12.94447
G1 X114.104 Y10.524 E13.00663
G1 X114.574 Y11.264 E13.05036
G1 X115.179 Y12.364 E13.11299
G1 X115.552 Y13.156 E13.15667
G1 X116.015 Y14.323 E13.21931
G1 X116.287 Y15.16 E13.26321
G1 X116.603 Y16.388 E13.32647
G1 X116.769 Y17.254 E13.37047
G1 X116.925 Y18.488 E13.43252
G1 X116.98 Y19.366 E13.47641
G1 X116.98 Y20.63 E13.53947
G1 X116.925 Y21.505 E13.58321
G1 X116.769 Y22.743 E13.64546
G1 X116.603 Y23.614 E13.6897
G1 X116.288 Y24.837 E13.75271
G1 X116.019 Y25.663 E13.79605
G1 X115.556 Y26.835 E13.85892
G1 X115.178 Y27.638 E13.90319
G1 X114.572 Y28.739 E13.96589
G1 X114.105 Y29.476 E14.00942
G1 X113.374 Y30.483 E14.0715
G1 X112.815 Y31.159 E14.11527
G1 X111.957 Y32.074 E14.17785
G1 X111.311 Y32.681 E14.22207
G1 X110.336 Y33.487 E14.28518
G1 X109.627 Y34.002 E14.3289
G1 X108.568 Y34.674 E14.39148
G1 X107.793 Y35.1 E14.4356
G1 X106.652 Y35.636 E14.49849
G1 X105.836 Y35.958 E14.54225
G1 X104.646 Y36.344 E14.60467
G1 X103.808 Y36.56 E14.64784
G1 X102.581 Y36.796 E14.71018
G1 X101.692 Y36.909 E14.75489
G1 X100.433 Y36.987 E14.81782
G1 X99.567 Y36.987 E14.86103
G1 X98.308 Y36.909 E14.92396
G1 X97.419 Y36.796 E14.96867
G1 X96.192 Y36.56 E15.03101
G1 X95.354 Y36.344 E15.07418
G1 X94.164 Y35.958 E15.1366
G1 X93.348 Y35.636 E15.18036
G1 X92.207 Y35.1 E15.24325
G1 X91.432 Y34.674 E15.28737
G1 X90.373 Y34.002 E15.34995
G1 X89.664 Y33.487 E15.39367
G1 X88.689 Y32.681 E15.45678
G1 X88.043 Y32.074 E15.501
G1 X87.185 Y31.159 E15.56358
G1 X86.626 Y30.483 E15.60735
G1 X85.895 Y29.476 E15.66943
G1 X85.428 Y28.739 E15.71296
G1 X84.822 Y27.638 E15.77566
G1 X84.444 Y26.835 E15.81993
G1 X83.981 Y25.663 E15.8828
G1 X83.712 Y24.837 E15.92614
G1 X83.397 Y23.614 E15.98915
G1 X83.231 Y22.743 E16.03339
G1 X83.075 Y21.505 E16.09564
G1 X83.02 Y20.63 E16.13938
G1 X83.02 Y19.367 E16.20239
G1 X83.075 Y18.489 E16.24628
G1 X83.231 Y17.255 E16.30833
G1 X83.397 Y16.389 E16.35233
G0 F3600 X83.784 Y16.488
G1 F1800 X84.1 Y15.26 E16.41559
G1 X84.356 Y14.473 E16.45688
G1 X84.819 Y13.305 E16.51956
G1 X85.172 Y12.556 E16.56087
G1 X85.777 Y11.456 E16.6235
G1 X86.219 Y10.76 E16.66463
G1 X86.95 Y9.753 E16.72671
G1 X87.477 Y9.115 E16.768
G1 X88.335 Y8.2 E16.83058
G1 X88.943 Y7.629 E16.87219
G1 X89.92 Y6.821 E16.93544
G1 X90.593 Y6.333 E16.97692
G1 X91.65 Y5.663 E17.03935
G1 X92.377 Y5.263 E17.08075
G1 X93.518 Y4.727 E17.14364
G1 X94.288 Y4.423 E17.18495
G1 X95.478 Y4.037 E17.24736
G1 X96.267 Y3.834 E17.28801
G1 X97.494 Y3.598 E17.35034
G1 X98.328 Y3.492 E17.39229
G1 X99.587 Y3.413 E17.45522
G1 X100.413 Y3.413 E17.49643
G1 X101.672 Y3.492 E17.55937
G1 X102.506 Y3.598 E17.60131
G1 X103.733 Y3.834 E17.66365
G1 X104.522 Y4.037 E17.70429
G1 X105.712 Y4.423 E17.76671
G1 X106.482 Y4.727 E17.80801
G1 X107.623 Y5.263 E17.8709
G1 X108.349 Y5.662 E17.91223
G1 X109.405 Y6.331 E17.9746
G1 X110.079 Y6.82 E18.01614
G1 X111.056 Y7.628 E18.07939
G1 X111.664 Y8.199 E18.12101
G1 X112.522 Y9.114 E18.18359
G1 X113.048 Y9.751 E18.2248
G1 X113.78 Y10.759 E18.28695
G1 X114.223 Y11.456 E18.32815
G1 X114.828 Y12.556 E18.39079
G1 X115.18 Y13.303 E18.43198
G1 X115.643 Y14.47 E18.49462
G1 X115.9 Y15.259 E18.53602
G1 X116.216 Y16.487 E18.59928
G1 X116.372 Y17.304 E18.64078
G1 X116.528 Y18.538 E18.70283
G1 X116.58 Y19.366 E18.74422
G1 X116.58 Y20.63 E18.80728
G1 X116.528 Y21.455 E18.84852
G1 X116.372 Y22.693 E18.91078
G1 X116.215 Y23.514 E18.95248
G1 X115.9 Y24.737 E19.01549
G1 X115.647 Y25.516 E19.05635
G1 X115.184 Y26.688 E19.11922
G1 X114.828 Y27.445 E19.16095
G1 X114.222 Y28.546 E19.22365
G1 X113.781 Y29.241 E19.26472
G1 X113.05 Y30.248 E19.3268
G1 X112.523 Y30.886 E19.36808
G1 X111.665 Y31.801 E19.43066
G1 X111.056 Y32.373 E19.47235
G1 X110.081 Y33.179 E19.53546
G1 X109.412 Y33.665 E19.57671
G1 X108.353 Y34.337 E19.63928
G1 X107.623 Y34.738 E19.68084
G1 X106.482 Y35.274 E19.74373
G1 X105.712 Y35.578 E19.78503
G1 X104.522 Y35.964 E19.84745
G1 X103.733 Y36.167 E19.88809
G1 X102.506 Y36.403 E19.95043
G1 X101.667 Y36.509 E19.99262
G1 X100.408 Y36.587 E20.05555
G1 X99.592 Y36.587 E20.09626
G1 X98.333 Y36.509 E20.15919
G1 X97.494 Y36.403 E20.20138
G1 X96.267 Y36.167 E20.26372
G1 X95.478 Y35.964 E20.30437
G1 X94.288 Y35.578 E20.36678
G1 X93.518 Y35.274 E20.40808
G1 X92.377 Y34.738 E20.47098
G1 X91.647 Y34.337 E20.51253
G1 X90.588 Y33.665 E20.5751
G1 X89.919 Y33.179 E20.61636
G1 X88.944 Y32.373 E20.67947
G1 X88.335 Y31.801 E20.72115
G1 X87.477 Y30.886 E20.78373
G1 X86.95 Y30.248 E20.82502
G1 X86.219 Y29.241 E20.8871
G1 X85.778 Y28.546 E20.92816
G1 X85.172 Y27.445 E20.99086
G1 X84.816 Y26.688 E21.0326
G1 X84.353 Y25.516 E21.09546
G1 X84.1 Y24.737 E21.13633
G1 X83.785 Y23.514 E21.19933
G1 X83.628 Y22.693 E21.24104
G1 X83.472 Y21.455 E21.30329
G1 X83.42 Y20.63 E21.34453
G1 X83.42 Y19.367 E21.40754
G1 X83.472 Y18.539 E21.44893
G1 X83.628 Y17.305 E21.51099
G1 X83.784 Y16.488 E21.55248
G0 F3600 X84.172 Y16.588
G1 F1800 X84.488 Y15.36 E21.61574
G1 X84.728 Y14.62 E21.65456
G1 X85.191 Y13.452 E21.71724
G1 X85.522 Y12.749 E21.75601
G1 X86.127 Y11.649 E21.81864
G1 X86.543 Y10.995 E21.85731
G1 X87.274 Y9.988 E21.91939
G1 X87.768 Y9.389 E21.95812
G1 X88.626 Y8.474 E22.0207
G1 X89.198 Y7.937 E22.05985
G1 X90.175 Y7.129 E22.1231
G1 X90.807 Y6.67 E22.16207
G1 X91.864 Y6 E22.2245
G1 X92.547 Y5.625 E22.26338
G1 X93.688 Y5.089 E22.32627
G1 X94.411 Y4.803 E22.36506
G1 X95.601 Y4.417 E22.42747
G1 X96.343 Y4.227 E22.46569
G1 X97.57 Y3.991 E22.52802
G1 X98.353 Y3.891 E22.56741
G1 X99.612 Y3.812 E22.63034
G1 X100.388 Y3.812 E22.66906
G1 X101.647 Y3.891 E22.73199
G1 X102.43 Y3.991 E22.77137
G1 X103.657 Y4.227 E22.83371
G1 X104.399 Y4.417 E22.87192
G1 X105.589 Y4.803 E22.93434
G1 X106.312 Y5.089 E22.97313
G1 X107.453 Y5.625 E23.03602
G1 X108.135 Y6 E23.07485
G1 X109.191 Y6.669 E23.13722
G1 X109.824 Y7.128 E23.17623
G1 X110.801 Y7.936 E23.23948
G1 X111.373 Y8.473 E23.27862
G1 X112.231 Y9.388 E23.3412
G1 X112.725 Y9.986 E23.3799
G1 X113.457 Y10.994 E23.44205
G1 X113.873 Y11.649 E23.48076
G1 X114.478 Y12.749 E23.54339
G1 X114.808 Y13.451 E23.58209
G1 X115.271 Y14.618 E23.64473
G1 X115.512 Y15.359 E23.6836
G1 X115.828 Y16.587 E23.74686
G1 X115.975 Y17.354 E23.78583
G1 X116.131 Y18.588 E23.84788
G1 X116.18 Y19.366 E23.88677
G1 X116.18 Y20.63 E23.94983
G1 X116.131 Y21.405 E23.98858
G1 X115.975 Y22.643 E24.05083
G1 X115.828 Y23.414 E24.08999
G1 X115.513 Y24.637 E24.15299
G1 X115.275 Y25.369 E24.19139
G1 X114.812 Y26.541 E24.25426
G1 X114.478 Y27.253 E24.2935
G1 X113.872 Y28.354 E24.3562
G1 X113.457 Y29.006 E24.39476
G1 X112.726 Y30.013 E24.45684
G1 X112.232 Y30.612 E24.49557
G1 X111.374 Y31.527 E24.55815
G1 X110.801 Y32.065 E24.59737
G1 X109.826 Y32.871 E24.66048
G1 X109.198 Y33.327 E24.6992
G1 X108.139 Y33.999 E24.76177
G1 X107.453 Y34.376 E24.80082
G1 X106.312 Y34.912 E24.86372
G1 X105.589 Y35.198 E24.90251
G1 X104.399 Y35.584 E24.96492
G1 X103.657 Y35.774 E25.00313
G1 X102.43 Y36.01 E25.06547
G1 X101.642 Y36.11 E25.1051
G1 X100.383 Y36.188 E25.16803
G1 X99.617 Y36.188 E25.20625
G1 X98.358 Y36.11 E25.26918
G1 X97.57 Y36.01 E25.30881
G1 X96.343 Y35.774 E25.37115
G1 X95.601 Y35.584 E25.40936
G1 X94.411 Y35.198 E25.47177
G1 X93.688 Y34.912 E25.51056
G1 X92.547 Y34.376 E25.57346
G1 X91.861 Y33.999 E25.61251
G1 X90.802 Y33.327 E25.67508
G1 X90.174 Y32.871 E25.7138
G1 X89.199 Y32.065 E25.77691
G1 X88.626 Y31.527 E25.81613
G1 X87.768 Y30.612 E25.87871
G1 X87.274 Y30.013 E25.91744
G1 X86.543 Y29.006 E25.97952
G1 X86.128 Y28.354 E26.01808
G1 X85.522 Y27.253 E26.08078
G1 X85.188 Y26.541 E26.12002
G1 X84.725 Y25.369 E26.18289
G1 X84.487 Y24.637 E26.22129
G1 X84.172 Y23.414 E26.2843
G1 X84.025 Y22.643 E26.32345
G1 X83.869 Y21.405 E26.38571
G1 X83.82 Y20.63 E26.42445
G1 X83.82 Y19.367 E26.48746
G1 X83.869 Y18.589 E26.52635
G1 X84.025 Y17.355 E26.58841
G1 X84.172 Y16.588 E26.62737
G0 F3600 X84.559 Y16.688
G1 F1800 X84.875 Y15.46 E26.69063
G1 X85.1 Y14.768 E26.72693
G1 X85.563 Y13.6 E26.78962
G1 X85.873 Y12.942 E26.8259
G1 X86.478 Y11.842 E26.88854
G1 X86.866 Y11.23 E26.92469
G1 X87.597 Y10.223 E26.98677
G1 X88.06 Y9.663 E27.02302
G1 X88.918 Y8.748 E27.0856
G1 X89.453 Y8.245 E27.12224
G1 X90.43 Y7.437 E27.18549
G1 X91.021 Y7.008 E27.22192
G1 X92.078 Y6.338 E27.28436
G1 X92.717 Y5.987 E27.32073
G1 X93.858 Y5.451 E27.38362
G1 X94.534 Y5.184 E27.41988
G1 X95.724 Y4.798 E27.4823
G1 X96.419 Y4.619 E27.5181
G1 X97.646 Y4.383 E27.58044
G1 X98.378 Y4.29 E27.61725
G1 X99.637 Y4.211 E27.68019
G1 X100.363 Y4.211 E27.71641
G1 X101.622 Y4.29 E27.77935
G1 X102.354 Y4.383 E27.81616
G1 X103.581 Y4.619 E27.8785
G1 X104.276 Y4.798 E27.9143
G1 X105.466 Y5.184 E27.97672
G1 X106.142 Y5.451 E28.01298
G1 X107.283 Y5.987 E28.07587
G1 X107.921 Y6.337 E28.11217
G1 X108.977 Y7.006 E28.17454
G1 X109.569 Y7.436 E28.21105
G1 X110.546 Y8.244 E28.2743
G1 X111.081 Y8.747 E28.31093
G1 X111.939 Y9.662 E28.37351
