;FLAVOR:RepRap
;TIME:1528
;Generated with Cura_SteamEngine master
M190 S60
M104 S200
M109 S200
G21 ;metric values
G90 ;absolute positioning
M82 ;set extruder to absolute mode
M107 ;start with the fan off
G28 X0 Y0 ;move X/Y to min endstops
G28 Z0 ;move Z to min endstops
G1 Z15.0 F9000 ;move the platform down 15mm
G92 E0 ;zero the extruded length
G1 F200 E3 ;extrude 3mm of feed stock
G92 E0 ;zero the extruded length again
G1 F9000
;Put printing message on LCD screen
M117 Printing...
;LAYER_COUNT:56
;LAYER:0
M107
G1 F1500 E-6.5
G0 F3600 X69.298 Y27.438 Z.3
;TYPE:SKIRT
G1 F1500 E0
G1 F1800 X69.717 Y26.55 E0.04899
G1 X70.383 Y25.34 E0.11789
G1 X70.91 Y24.511 E0.1669
G1 X71.723 Y23.394 E0.23583
G1 X72.337 Y22.651 E0.28392
G1 X73.272 Y21.653 E0.35214
G1 X73.996 Y20.972 E0.40173
G1 X75.071 Y20.084 E0.4713
G1 X75.861 Y19.511 E0.51998
G1 X77.023 Y18.774 E0.58863
G1 X77.882 Y18.302 E0.63753
G1 X79.137 Y17.712 E0.70672
G1 X80.047 Y17.352 E0.75554
G1 X81.356 Y16.927 E0.82421
G1 X82.303 Y16.684 E0.87298
G1 X83.666 Y16.424 E0.94221
G1 X84.64 Y16.301 E0.99119
G1 X86.012 Y16.215 E1.05977
G1 X86.988 Y16.215 E1.10846
G1 X88.361 Y16.301 E1.1771
G1 X89.335 Y16.424 E1.22608
G1 X90.698 Y16.684 E1.2953
G1 X91.645 Y16.927 E1.34408
G1 X92.954 Y17.352 E1.41274
G1 X93.864 Y17.712 E1.46157
G1 X95.119 Y18.302 E1.53075
G1 X95.976 Y18.773 E1.57954
G1 X97.137 Y19.509 E1.64812
G1 X97.929 Y20.083 E1.69692
G1 X99.004 Y20.971 E1.76648
G1 X99.728 Y21.652 E1.81607
G1 X100 Y21.942 E1.83591
G1 X100.271 Y21.653 E1.85567
G1 X100.995 Y20.972 E1.90526
G1 X102.07 Y20.084 E1.97483
G1 X102.86 Y19.511 E2.02351
G1 X104.022 Y18.774 E2.09216
G1 X104.881 Y18.302 E2.14106
G1 X106.136 Y17.712 E2.21025
G1 X107.046 Y17.352 E2.25907
G1 X108.355 Y16.927 E2.32773
G1 X109.302 Y16.684 E2.37651
G1 X110.665 Y16.424 E2.44574
G1 X111.639 Y16.301 E2.49472
G1 X113.012 Y16.215 E2.56335
G1 X113.988 Y16.215 E2.61204
G1 X115.36 Y16.301 E2.68063
G1 X116.334 Y16.424 E2.72961
G1 X117.697 Y16.684 E2.79883
G1 X118.644 Y16.927 E2.84761
G1 X119.953 Y17.352 E2.91627
G1 X120.863 Y17.712 E2.96509
G1 X122.118 Y18.302 E3.03428
G1 X122.975 Y18.773 E3.08307
G1 X124.136 Y19.509 E3.15165
G1 X124.928 Y20.083 E3.20045
G1 X126.003 Y20.971 E3.27001
G1 X126.727 Y21.652 E3.3196
G1 X127.662 Y22.65 E3.38783
G1 X128.276 Y23.392 E3.43588
G1 X129.09 Y24.51 E3.50487
G1 X129.617 Y25.34 E3.55392
G1 X130.283 Y26.55 E3.62283
G1 X130.701 Y27.437 E3.67175
G1 X131.21 Y28.721 E3.74066
G1 X131.511 Y29.645 E3.78914
G1 X131.856 Y30.981 E3.85798
G1 X132.042 Y31.95 E3.90721
G1 X132.216 Y33.322 E3.97621
G1 X132.278 Y34.303 E4.02525
G1 X132.278 Y35.693 E4.09459
G1 X132.216 Y36.672 E4.14353
G1 X132.042 Y38.047 E4.21268
G1 X131.856 Y39.018 E4.262
G1 X131.512 Y40.35 E4.33064
G1 X131.214 Y41.267 E4.37874
G1 X130.705 Y42.555 E4.44784
G1 X130.285 Y43.449 E4.49712
G1 X129.618 Y44.661 E4.56613
G1 X129.09 Y45.49 E4.61517
G1 X128.277 Y46.607 E4.6841
G1 X127.663 Y47.35 E4.73218
G1 X126.728 Y48.348 E4.80041
G1 X126.004 Y49.029 E4.85
G1 X124.929 Y49.917 E4.91956
G1 X124.139 Y50.49 E4.96825
G1 X122.977 Y51.227 E5.0369
G1 X122.12 Y51.698 E5.08569
G1 X120.866 Y52.288 E5.15483
G1 X119.952 Y52.649 E5.20386
G1 X118.642 Y53.074 E5.27257
G1 X117.697 Y53.317 E5.32125
G1 X116.334 Y53.577 E5.39047
G1 X115.354 Y53.7 E5.43975
G1 X113.982 Y53.785 E5.50833
G1 X113.018 Y53.785 E5.55642
G1 X111.645 Y53.7 E5.62506
G1 X110.665 Y53.577 E5.67433
G1 X109.302 Y53.317 E5.74356
G1 X108.357 Y53.074 E5.79224
G1 X107.047 Y52.649 E5.86095
G1 X106.133 Y52.288 E5.90997
G1 X104.879 Y51.698 E5.97912
G1 X104.022 Y51.227 E6.0279
G1 X102.86 Y50.49 E6.09655
G1 X102.07 Y49.917 E6.14524
G1 X100.995 Y49.029 E6.21481
G1 X100.271 Y48.348 E6.26439
G1 X100 Y48.059 E6.28416
G1 X99.729 Y48.348 E6.30393
G1 X99.005 Y49.029 E6.35351
G1 X97.93 Y49.917 E6.42308
G1 X97.14 Y50.49 E6.47177
G1 X95.978 Y51.227 E6.54042
G1 X95.121 Y51.698 E6.5892
G1 X93.867 Y52.288 E6.65834
G1 X92.953 Y52.649 E6.70737
G1 X91.643 Y53.074 E6.77608
G1 X90.698 Y53.317 E6.82476
G1 X89.335 Y53.577 E6.89399
G1 X88.355 Y53.7 E6.94326
G1 X86.982 Y53.785 E7.01189
G1 X86.018 Y53.785 E7.05999
G1 X84.646 Y53.7 E7.12857
G1 X83.666 Y53.577 E7.17785
G1 X82.303 Y53.317 E7.24707
G1 X81.358 Y53.074 E7.29575
G1 X80.048 Y52.649 E7.36446
G1 X79.134 Y52.288 E7.41349
G1 X77.88 Y51.698 E7.48263
G1 X77.023 Y51.227 E7.53142
G1 X75.861 Y50.49 E7.60007
G1 X75.071 Y49.917 E7.64876
G1 X73.996 Y49.029 E7.71832
G1 X73.272 Y48.348 E7.76791
G1 X72.337 Y47.35 E7.83614
G1 X71.723 Y46.607 E7.88422
G1 X70.91 Y45.49 E7.95315
G1 X70.382 Y44.661 E8.00218
G1 X69.715 Y43.449 E8.0712
G1 X69.295 Y42.555 E8.12048
G1 X68.786 Y41.267 E8.18958
G1 X68.488 Y40.35 E8.23768
G1 X68.144 Y39.018 E8.30632
G1 X67.958 Y38.047 E8.35564
G1 X67.784 Y36.672 E8.42479
G1 X67.722 Y35.693 E8.47373
G1 X67.722 Y34.304 E8.54302
G1 X67.784 Y33.322 E8.59211
G1 X67.958 Y31.951 E8.66106
G1 X68.143 Y30.984 E8.71018
G1 X68.488 Y29.647 E8.77907
G1 X68.789 Y28.723 E8.82755
G1 X69.298 Y27.438 E8.89651
G0 F3600 X69.67 Y27.586
G1 F1800 X70.067 Y26.743 E8.94299
G1 X70.733 Y25.533 E9.0119
G1 X71.233 Y24.746 E9.05842
G1 X72.046 Y23.629 E9.12734
G1 X72.629 Y22.925 E9.17295
G1 X73.564 Y21.927 E9.24117
G1 X74.251 Y21.281 E9.28822
G1 X75.326 Y20.393 E9.35779
G1 X76.076 Y19.849 E9.40401
G1 X77.238 Y19.112 E9.47266
G1 X78.053 Y18.664 E9.51906
G1 X79.308 Y18.074 E9.58824
G1 X80.171 Y17.733 E9.63454
G1 X81.48 Y17.308 E9.7032
G1 X82.378 Y17.077 E9.74946
G1 X83.741 Y16.817 E9.81869
G1 X84.665 Y16.7 E9.86515
G1 X86.037 Y16.614 E9.93374
G1 X86.963 Y16.614 E9.97994
G1 X88.336 Y16.7 E10.04857
G1 X89.26 Y16.817 E10.09504
G1 X90.623 Y17.077 E10.16426
G1 X91.521 Y17.308 E10.21052
G1 X92.83 Y17.733 E10.27919
G1 X93.693 Y18.074 E10.32548
G1 X94.948 Y18.664 E10.39467
G1 X95.762 Y19.111 E10.441
G1 X96.923 Y19.847 E10.50958
G1 X97.674 Y20.392 E10.55587
G1 X98.749 Y21.28 E10.62543
G1 X99.436 Y21.926 E10.67248
G1 X100 Y22.528 E10.71364
G1 X100.563 Y21.927 E10.75472
G1 X101.25 Y21.281 E10.80177
G1 X102.325 Y20.393 E10.87133
G1 X103.075 Y19.849 E10.91756
G1 X104.237 Y19.112 E10.98621
G1 X105.052 Y18.664 E11.03261
G1 X106.307 Y18.074 E11.10179
G1 X107.17 Y17.733 E11.14809
G1 X108.479 Y17.308 E11.21675
G1 X109.377 Y17.077 E11.26301
G1 X110.74 Y16.817 E11.33224
G1 X111.664 Y16.7 E11.3787
G1 X113.037 Y16.614 E11.44734
G1 X113.963 Y16.614 E11.49353
G1 X115.335 Y16.7 E11.56212
G1 X116.259 Y16.817 E11.60858
G1 X117.622 Y17.077 E11.67781
G1 X118.52 Y17.308 E11.72407
G1 X119.829 Y17.733 E11.79273
G1 X120.692 Y18.074 E11.83903
G1 X121.947 Y18.664 E11.90821
G1 X122.761 Y19.111 E11.95454
G1 X123.922 Y19.847 E12.02313
G1 X124.673 Y20.392 E12.06942
G1 X125.748 Y21.28 E12.13898
G1 X126.435 Y21.926 E12.18603
G1 X127.37 Y22.924 E12.25426
G1 X127.952 Y23.627 E12.29979
G1 X128.766 Y24.745 E12.36879
G1 X129.267 Y25.533 E12.41537
G1 X129.933 Y26.743 E12.48428
G1 X130.329 Y27.584 E12.53066
G1 X130.838 Y28.868 E12.59956
G1 X131.124 Y29.745 E12.64559
G1 X131.469 Y31.081 E12.71443
G1 X131.645 Y32 E12.76111
G1 X131.819 Y33.372 E12.83011
G1 X131.878 Y34.303 E12.87665
G1 X131.878 Y35.693 E12.94599
G1 X131.819 Y36.622 E12.99244
G1 X131.645 Y37.997 E13.06158
G1 X131.469 Y38.918 E13.10836
G1 X131.125 Y40.25 E13.177
G1 X130.842 Y41.12 E13.22264
G1 X130.333 Y42.408 E13.29173
G1 X129.934 Y43.256 E13.33849
G1 X129.267 Y44.468 E13.40751
G1 X128.767 Y45.255 E13.45403
G1 X127.954 Y46.372 E13.52295
G1 X127.371 Y47.076 E13.56855
G1 X126.436 Y48.074 E13.63678
G1 X125.749 Y48.72 E13.68383
G1 X124.674 Y49.608 E13.75339
G1 X123.924 Y50.152 E13.79962
G1 X122.762 Y50.889 E13.86827
G1 X121.949 Y51.336 E13.91455
G1 X120.695 Y51.926 E13.9837
G1 X119.829 Y52.269 E14.03017
G1 X118.519 Y52.694 E14.09888
G1 X117.622 Y52.924 E14.14507
G1 X116.259 Y53.184 E14.2143
G1 X115.33 Y53.301 E14.26101
G1 X113.958 Y53.386 E14.3296
G1 X113.043 Y53.386 E14.37525
G1 X111.67 Y53.301 E14.44388
G1 X110.74 Y53.184 E14.49064
G1 X109.377 Y52.924 E14.55987
G1 X108.48 Y52.694 E14.60606
G1 X107.17 Y52.269 E14.67477
G1 X106.304 Y51.926 E14.72124
G1 X105.05 Y51.336 E14.79039
G1 X104.237 Y50.889 E14.83667
G1 X103.075 Y50.152 E14.90532
G1 X102.325 Y49.608 E14.95155
G1 X101.25 Y48.72 E15.02111
G1 X100.563 Y48.074 E15.06816
G1 X100 Y47.473 E15.10924
G1 X99.437 Y48.074 E15.15033
G1 X98.75 Y48.72 E15.19738
G1 X97.675 Y49.608 E15.26694
G1 X96.925 Y50.152 E15.31316
G1 X95.763 Y50.889 E15.38181
G1 X94.95 Y51.336 E15.4281
G1 X93.696 Y51.926 E15.49724
G1 X92.83 Y52.269 E15.54371
G1 X91.52 Y52.694 E15.61242
G1 X90.623 Y52.924 E15.65862
G1 X89.26 Y53.184 E15.72785
G1 X88.33 Y53.301 E15.77461
G1 X86.957 Y53.386 E15.84324
G1 X86.042 Y53.386 E15.88889
G1 X84.67 Y53.301 E15.95747
G1 X83.741 Y53.184 E16.00418
G1 X82.378 Y52.924 E16.07341
G1 X81.481 Y52.694 E16.11961
G1 X80.171 Y52.269 E16.18832
G1 X79.305 Y51.926 E16.23479
G1 X78.051 Y51.336 E16.30393
G1 X77.238 Y50.889 E16.35022
G1 X76.076 Y50.152 E16.41887
G1 X75.326 Y49.608 E16.46509
G1 X74.251 Y48.72 E16.53466
G1 X73.564 Y48.074 E16.5817
G1 X72.629 Y47.076 E16.64993
G1 X72.046 Y46.372 E16.69553
G1 X71.233 Y45.255 E16.76446
G1 X70.733 Y44.468 E16.81098
G1 X70.066 Y43.256 E16.88
G1 X69.667 Y42.408 E16.92675
G1 X69.158 Y41.12 E16.99585
G1 X68.875 Y40.25 E17.04149
G1 X68.531 Y38.918 E17.11012
G1 X68.355 Y37.997 E17.1569
G1 X68.181 Y36.622 E17.22605
G1 X68.122 Y35.693 E17.27249
G1 X68.122 Y34.304 E17.34179
G1 X68.181 Y33.372 E17.38838
G1 X68.355 Y32.001 E17.45733
G1 X68.531 Y31.084 E17.50391
G1 X68.876 Y29.747 E17.5728
G1 X69.161 Y28.871 E17.61876
G1 X69.67 Y27.586 E17.68771
G0 F3600 X70.042 Y27.733
G1 F1800 X70.418 Y26.936 E17.73168
G1 X71.084 Y25.726 E17.80059
G1 X71.556 Y24.982 E17.84454
G1 X72.369 Y23.865 E17.91347
G1 X72.921 Y23.198 E17.95666
G1 X73.856 Y22.2 E18.02489
G1 X74.506 Y21.589 E18.0694
G1 X75.581 Y20.701 E18.13896
G1 X76.29 Y20.187 E18.18265
G1 X77.452 Y19.45 E18.2513
G1 X78.223 Y19.026 E18.2952
G1 X79.478 Y18.436 E18.36439
G1 X80.294 Y18.113 E18.40817
G1 X81.603 Y17.688 E18.47683
G1 X82.453 Y17.47 E18.52061
G1 X83.816 Y17.21 E18.58984
G1 X84.69 Y17.1 E18.63379
G1 X86.062 Y17.014 E18.70237
G1 X86.938 Y17.014 E18.74607
G1 X88.311 Y17.1 E18.81471
G1 X89.185 Y17.21 E18.85865
G1 X90.548 Y17.47 E18.92788
G1 X91.398 Y17.688 E18.97166
G1 X92.707 Y18.113 E19.04032
G1 X93.523 Y18.436 E19.08411
G1 X94.778 Y19.026 E19.15329
G1 X95.548 Y19.449 E19.19712
G1 X96.709 Y20.185 E19.2657
G1 X97.419 Y20.7 E19.30946
G1 X98.494 Y21.588 E19.37903
G1 X99.144 Y22.199 E19.42353
G1 X100 Y23.113 E19.48601
G1 X100.855 Y22.2 E19.54841
G1 X101.505 Y21.589 E19.59292
G1 X102.58 Y20.701 E19.66248
G1 X103.289 Y20.187 E19.70617
G1 X104.451 Y19.45 E19.77482
G1 X105.222 Y19.026 E19.81872
G1 X106.477 Y18.436 E19.88791
G1 X107.293 Y18.113 E19.93169
G1 X108.602 Y17.688 E20.00035
G1 X109.452 Y17.47 E20.04413
G1 X110.815 Y17.21 E20.11336
G1 X111.689 Y17.1 E20.15731
G1 X113.062 Y17.014 E20.22594
G1 X113.938 Y17.014 E20.26964
G1 X115.31 Y17.1 E20.33823
G1 X116.184 Y17.21 E20.38217
G1 X117.547 Y17.47 E20.4514
G1 X118.397 Y17.688 E20.49518
G1 X119.706 Y18.113 E20.56384
G1 X120.522 Y18.436 E20.60763
G1 X121.777 Y19.026 E20.67681
G1 X122.547 Y19.449 E20.72064
G1 X123.708 Y20.185 E20.78922
G1 X124.418 Y20.7 E20.83298
G1 X125.493 Y21.588 E20.90255
G1 X126.143 Y22.199 E20.94705
G1 X127.078 Y23.197 E21.01528
G1 X127.629 Y23.863 E21.0584
G1 X128.443 Y24.981 E21.1274
G1 X128.916 Y25.726 E21.17143
G1 X129.582 Y26.936 E21.24033
G1 X129.957 Y27.731 E21.28419
G1 X130.466 Y29.015 E21.3531
G1 X130.737 Y29.845 E21.39666
G1 X131.082 Y31.181 E21.4655
G1 X131.248 Y32.05 E21.50963
G1 X131.422 Y33.422 E21.57863
G1 X131.478 Y34.303 E21.62267
G1 X131.478 Y35.693 E21.69202
G1 X131.423 Y36.572 E21.73596
G1 X131.249 Y37.947 E21.80511
G1 X131.082 Y38.818 E21.84935
G1 X130.738 Y40.15 E21.91799
G1 X130.47 Y40.973 E21.96117
G1 X129.961 Y42.261 E22.03026
G1 X129.584 Y43.063 E22.07448
G1 X128.917 Y44.275 E22.14349
G1 X128.444 Y45.019 E22.18748
G1 X127.631 Y46.136 E22.2564
G1 X127.079 Y46.803 E22.2996
G1 X126.144 Y47.801 E22.36783
G1 X125.494 Y48.412 E22.41233
G1 X124.419 Y49.3 E22.4819
G1 X123.71 Y49.814 E22.52559
G1 X122.548 Y50.551 E22.59424
G1 X121.779 Y50.974 E22.63802
G1 X120.525 Y51.564 E22.70716
G1 X119.705 Y51.888 E22.75115
G1 X118.395 Y52.313 E22.81986
G1 X117.547 Y52.531 E22.86354
G1 X116.184 Y52.791 E22.93277
G1 X115.305 Y52.902 E22.97697
G1 X113.933 Y52.987 E23.04555
G1 X113.067 Y52.987 E23.08876
G1 X111.694 Y52.902 E23.15739
G1 X110.815 Y52.791 E23.20159
G1 X109.452 Y52.531 E23.27082
G1 X108.604 Y52.313 E23.3145
G1 X107.294 Y51.888 E23.38321
G1 X106.474 Y51.564 E23.4272
G1 X105.22 Y50.974 E23.49634
G1 X104.451 Y50.551 E23.54012
G1 X103.289 Y49.814 E23.60877
G1 X102.58 Y49.3 E23.65246
G1 X101.505 Y48.412 E23.72203
G1 X100.855 Y47.801 E23.76653
G1 X100 Y46.888 E23.82894
G1 X99.145 Y47.801 E23.89134
G1 X98.495 Y48.412 E23.93585
G1 X97.42 Y49.3 E24.00541
G1 X96.711 Y49.814 E24.0491
G1 X95.549 Y50.551 E24.11775
G1 X94.78 Y50.974 E24.16154
G1 X93.526 Y51.564 E24.23068
G1 X92.706 Y51.888 E24.27467
G1 X91.396 Y52.313 E24.34338
G1 X90.548 Y52.531 E24.38706
G1 X89.185 Y52.791 E24.45628
G1 X88.306 Y52.902 E24.50049
G1 X86.933 Y52.987 E24.56912
G1 X86.067 Y52.987 E24.61232
G1 X84.695 Y52.902 E24.6809
G1 X83.816 Y52.791 E24.7251
G1 X82.453 Y52.531 E24.79433
G1 X81.605 Y52.313 E24.83801
G1 X80.295 Y51.888 E24.90672
G1 X79.475 Y51.564 E24.95071
G1 X78.221 Y50.974 E25.01985
G1 X77.452 Y50.551 E25.06364
G1 X76.29 Y49.814 E25.13229
G1 X75.581 Y49.3 E25.17598
G1 X74.506 Y48.412 E25.24554
G1 X73.856 Y47.801 E25.29005
G1 X72.921 Y46.803 E25.35828
G1 X72.369 Y46.136 E25.40147
G1 X71.556 Y45.019 E25.4704
G1 X71.083 Y44.275 E25.51438
G1 X70.416 Y43.063 E25.5834
G1 X70.039 Y42.261 E25.62761
G1 X69.53 Y40.973 E25.69671
G1 X69.262 Y40.15 E25.73989
G1 X68.918 Y38.818 E25.80852
G1 X68.751 Y37.947 E25.85277
G1 X68.577 Y36.572 E25.92191
G1 X68.522 Y35.693 E25.96585
G1 X68.522 Y34.304 E26.03515
G1 X68.578 Y33.423 E26.07919
G1 X68.752 Y32.052 E26.14814
G1 X68.918 Y31.184 E26.19223
G1 X69.263 Y29.847 E26.26112
G1 X69.533 Y29.018 E26.30462
G1 X70.042 Y27.733 E26.37357
G0 F3600 X70.414 Y27.88
G1 F1800 X70.768 Y27.129 E26.41499
G1 X71.434 Y25.919 E26.4839
G1 X71.88 Y25.217 E26.52539
G1 X72.693 Y24.1 E26.59432
G1 X73.213 Y23.472 E26.635
G1 X74.148 Y22.474 E26.70322
G1 X74.761 Y21.898 E26.74519
G1 X75.836 Y21.01 E26.81475
G1 X76.504 Y20.525 E26.85594
G1 X77.666 Y19.788 E26.92459
G1 X78.393 Y19.388 E26.96598
G1 X79.648 Y18.798 E27.03517
G1 X80.418 Y18.494 E27.07647
G1 X81.727 Y18.069 E27.14513
G1 X82.528 Y17.863 E27.1864
G1 X83.891 Y17.603 E27.25562
G1 X84.715 Y17.499 E27.29706
G1 X86.087 Y17.413 E27.36564
G1 X86.913 Y17.413 E27.40685
G1 X88.286 Y17.499 E27.47548
G1 X89.11 Y17.603 E27.51692
G1 X90.473 Y17.863 E27.58615
G1 X91.274 Y18.069 E27.62741
G1 X92.583 Y18.494 E27.69607
G1 X93.353 Y18.798 E27.73737
G1 X94.608 Y19.388 E27.80656
G1 X95.334 Y19.787 E27.84789
G1 X96.495 Y20.523 E27.91647
G1 X97.164 Y21.009 E27.95772
G1 X98.239 Y21.897 E28.02729
G1 X98.852 Y22.473 E28.06925
G1 X99.787 Y23.471 E28.13748
G1 X100 Y23.728 E28.15413
G1 X100.212 Y23.472 E28.17072
G1 X101.147 Y22.474 E28.23894
G1 X101.76 Y21.898 E28.28091
G1 X102.835 Y21.01 E28.35047
G1 X103.503 Y20.525 E28.39166
G1 X104.665 Y19.788 E28.46031
G1 X105.392 Y19.388 E28.5017
G1 X106.647 Y18.798 E28.57089
G1 X107.417 Y18.494 E28.61219
G1 X108.726 Y18.069 E28.68085
G1 X109.527 Y17.863 E28.72212
G1 X110.89 Y17.603 E28.79134
G1 X111.714 Y17.499 E28.83278
G1 X113.087 Y17.413 E28.90141
G1 X113.913 Y17.413 E28.94262
G1 X115.285 Y17.499 E29.01121
G1 X116.109 Y17.603 E29.05264
G1 X117.472 Y17.863 E29.12187
G1 X118.273 Y18.069 E29.16313
G1 X119.582 Y18.494 E29.23179
G1 X120.352 Y18.798 E29.27309
G1 X121.607 Y19.388 E29.34228
G1 X122.333 Y19.787 E29.38361
G1 X123.494 Y20.523 E29.45219
G1 X124.163 Y21.009 E29.49344
G1 X125.238 Y21.897 E29.56301
G1 X125.851 Y22.473 E29.60497
G1 X126.786 Y23.471 E29.6732
G1 X127.306 Y24.098 E29.71384
G1 X128.12 Y25.216 E29.78284
G1 X128.566 Y25.919 E29.82437
G1 X129.232 Y27.129 E29.89328
G1 X129.585 Y27.879 E29.93463
G1 X130.094 Y29.163 E30.00354
G1 X130.349 Y29.945 E30.04458
G1 X130.694 Y31.281 E30.11342
G1 X130.852 Y32.101 E30.15508
